X:1
T: George S. Forbes of Aslown
C:Alexander Walker
R:Reel
Q: 232
K:Bb
M:4/4
L:1/8
DC|:B,2 B2 FB DB|C2 c2 Gc Ec|Fd Ec DB DB,|C2 C2 C2 DC|
B,2 B2 FB DB|C2 c2 Gc Ec|eg fe dB cA|1B2 B2 B2 DC:|2B2 B2 B2 a2|
bf df Bf df|gB aB ba bf|eg ec df dB|c2 c2 c2 ((3fga)|
bf df Bf df|gB aB ba gf|ed cB Fe cA|B2 B2 B2 a2|
bf df Bf df|gB aB ba bf|eg ec df dB|BA GF ED CB,|
Df df Bf df|gd ad bg ec|BA GF EG FE|D2 B,2 B,2||
